carddavmate/img/company_s_b.svg

<?xml version="1.0" encoding="UTF-8" standalone="no"?>
<!DOCTYPE svg  PUBLIC '-//W3C//DTD SVG 1.1//EN'  'http://www.w3.org/Graphics/SVG/1.1/DTD/svg11.dtd' [
	<!ENTITY ns_flows "http://ns.adobe.com/Flows/1.0/">
]>
<svg xmlns="http://www.w3.org/2000/svg" xml:space="preserve" height="18px" width="30px" version="1.1" y="0px" x="0px" overflow="visible" xmlns:xlink="http://www.w3.org/1999/xlink" viewBox="0 -2 30 18" enable-background="new 0 -2 30 18">
<path d="m20.285 0h-8.571c-0.395 0-0.714 0.276-0.714 0.616v14.769c0 0.342 0.319 0.615 0.714 0.615h8.571c0.395 0 0.715-0.273 0.715-0.615v-14.769c0-0.34-0.32-0.616-0.715-0.616zm-6.285 15h-2v-2h2v2zm0-3h-2v-2h2v2zm0-3h-2v-2h2v2zm0-3h-2v-2h2v2zm0-3h-2v-2h2v2zm3 9h-2v-2h2v2zm0-3h-2v-2h2v2zm0-3h-2v-2h2v2zm0-3h-2v-2h2v2zm3 12h-2v-2h2v2zm0-3h-2v-2h2v2zm0-3h-2v-2h2v2zm0-3h-2v-2h2v2zm0-3h-2v-2h2v2z" fill="#575756"/>
<path d="m9.5 6h-9c-0.276 0-0.5 0.224-0.5 0.5v9.001c0 0.273 0.224 0.499 0.5 0.499h9c0.276 0 0.5-0.226 0.5-0.499v-9.001c0-0.276-0.224-0.5-0.5-0.5zm-6.5 9h-2v-2h2v2zm0-3h-2v-2h2v2zm0-3h-2v-2h2v2zm3 3h-2v-2h2v2zm0-3h-2v-2h2v2zm3 6h-2v-2h2v2zm0-3h-2v-2h2v2zm0-3h-2v-2h2v2z" fill="#575756"/>
</svg>

<?xml version="1.0" encoding="utf-8"?>
<!-- Generator: Adobe Illustrator 15.1.0, SVG Export Plug-In  -->
<!DOCTYPE svg PUBLIC "-//W3C//DTD SVG 1.1//EN" "http://www.w3.org/Graphics/SVG/1.1/DTD/svg11.dtd" [
	<!ENTITY ns_flows "http://ns.adobe.com/Flows/1.0/">
]>
<svg version="1.1"
	 xmlns="http://www.w3.org/2000/svg" xmlns:xlink="http://www.w3.org/1999/xlink" xmlns:a="http://ns.adobe.com/AdobeSVGViewerExtensions/3.0/"
	 x="0px" y="0px" width="30px" height="18px" viewBox="0 -2 30 18" overflow="visible" enable-background="new 0 -2 30 18"
	 xml:space="preserve">
<defs>
</defs>
<path fill="#575756" d="M20.285,0h-8.571C11.319,0,11,0.276,11,0.616v14.769C11,15.727,11.319,16,11.714,16h8.571
	C20.68,16,21,15.727,21,15.385V0.616C21,0.276,20.68,0,20.285,0z M14,15h-2v-2h2V15z M14,12h-2v-2h2V12z M14,9h-2V7h2V9z M14,6h-2V4
	h2V6z M14,3h-2V1h2V3z M17,12h-2v-2h2V12z M17,9h-2V7h2V9z M17,6h-2V4h2V6z M17,3h-2V1h2V3z M20,15h-2v-2h2V15z M20,12h-2v-2h2V12z
	 M20,9h-2V7h2V9z M20,6h-2V4h2V6z M20,3h-2V1h2V3z"/>
<path fill="#575756" d="M9.5,6h-9C0.224,6,0,6.224,0,6.5v9.001C0,15.774,0.224,16,0.5,16h9c0.276,0,0.5-0.226,0.5-0.499V6.5
	C10,6.224,9.776,6,9.5,6z M3,15H1v-2h2V15z M3,12H1v-2h2V12z M3,9H1V7h2V9z M6,12H4v-2h2V12z M6,9H4V7h2V9z M9,15H7v-2h2V15z M9,12
	H7v-2h2V12z M9,9H7V7h2V9z"/>
</svg>
